assets/logo-petchen.svg

<svg xmlns="http://www.w3.org/2000/svg" width="235" height="46" viewBox="0 0 235 46" fill="none">
    <path d="M14.0578 45.1399H0V3.21533H19.7528C31.1957 3.21533 37.0673 9.50225 37.0673 15.736C37.0673 21.9698 31.4313 27.9085 19.7528 27.9085H14.0578V45.1458V45.1399ZM17.4265 25.5767C20.9719 25.5767 22.4795 21.0903 22.4795 16.3736C22.4795 11.1315 20.5596 5.5412 17.4265 5.5412H14.0578V25.5767H17.4265Z" fill="#3F593F"/>
    <path d="M69.017 32.8556C69.017 39.5499 62.2207 45.7246 53.0981 45.7246C41.2488 45.7246 36.4844 37.3362 36.4844 28.5463C36.4844 19.7564 41.5374 9.62061 53.799 9.62061C62.3974 9.62061 66.6966 12.9382 66.6966 16.669C66.6966 22.3774 56.7024 28.0268 51.7083 30.4707C53.2748 32.6844 55.3125 34.1957 57.9274 34.1957C61.8791 34.1957 66.0605 32.1591 68.4987 28.4873C68.8462 29.9454 69.0228 31.3975 69.0228 32.8556H69.017ZM55.2477 17.7729C55.2477 14.7446 53.3278 12.4719 50.7719 12.4719C48.7989 12.4719 48.0392 13.8709 48.0392 17.5368C48.0392 20.7954 48.793 25.0516 50.4774 28.4282C52.3973 25.9843 55.2418 21.4979 55.2418 17.7729H55.2477Z" fill="#3F593F"/>
    <path d="M71.4142 3.21518H72.6333C76.9914 3.21518 81.002 2.80786 84.7771 2.05225V10.2046H88.8996V12.6485H84.7771V35.2401C84.7771 40.3641 86.9856 42.2885 88.8466 42.2885V44.5613C87.1034 44.9095 86.055 45.1457 83.9643 45.1457C75.5426 45.1457 71.4142 39.2071 71.4142 34.0831V12.6544H69.8477V10.2105H71.4142V3.22108V3.21518Z" fill="#3F593F"/>
    <path d="M121.385 32.8556C121.385 39.5499 114.589 45.7246 105.466 45.7246C93.617 45.7246 88.8525 37.3362 88.8525 28.5463C88.8525 19.7564 93.9056 9.62061 106.167 9.62061C114.766 9.62061 119.065 12.8792 119.065 16.3739C119.065 19.2842 116.044 22.4896 109.942 23.6525C109.477 20.2169 104.948 12.4719 102.274 12.4719C101.173 12.4719 100.413 13.8709 100.413 17.5368C100.413 24.0008 103.434 34.1898 110.29 34.1898C114.241 34.1898 118.423 32.1532 120.861 28.4814C121.208 29.9395 121.385 31.3916 121.385 32.8497V32.8556Z" fill="#3F593F"/>
    <path d="M125.13 1.46811C129.488 1.46811 133.499 1.06079 137.274 0.305176V15.9723C140.295 11.722 144.771 9.62634 149.011 9.62634C154.995 9.62634 160.513 13.9947 160.513 22.9617V45.146H147.033V24.9983C147.033 18.4162 144.706 14.9806 142.327 14.9806C139.83 14.9806 137.274 18.7055 137.274 26.3383V45.146H123.911V1.46811H125.13Z" fill="#3F593F"/>
    <path d="M195.361 32.8556C195.361 39.5499 188.564 45.7246 179.442 45.7246C167.593 45.7246 162.828 37.3362 162.828 28.5463C162.828 19.7564 167.881 9.62061 180.143 9.62061C188.741 9.62061 193.04 12.9382 193.04 16.669C193.04 22.3774 183.046 28.0268 178.052 30.4707C179.619 32.6844 181.656 34.1957 184.265 34.1957C188.217 34.1957 192.398 32.1591 194.837 28.4873C195.184 29.9454 195.361 31.3975 195.361 32.8556ZM181.591 17.7729C181.591 14.7446 179.672 12.4719 177.116 12.4719C175.143 12.4719 174.383 13.8709 174.383 17.5368C174.383 20.7954 175.137 25.0516 176.821 28.4282C178.735 25.9843 181.586 21.4979 181.586 17.7729H181.591Z" fill="#3F593F"/>
    <path d="M199.03 10.7835C203.388 10.7835 207.398 10.3762 211.173 9.62061V15.9666C214.195 11.7162 218.671 9.62061 222.911 9.62061C228.894 9.62061 234.413 13.989 234.413 22.956V45.1402H220.932V24.9926C220.932 18.4105 218.606 14.9748 216.226 14.9748C213.847 14.9748 211.173 18.6997 211.173 26.3326V45.1402H197.811V10.7835H199.03Z" fill="#3F593F"/>
</svg>

<svg xmlns="http://www.w3.org/2000/svg" width="235" height="46" fill="none"><path fill="#3F593F" d="M14.058 45.14H0V3.215h19.753c11.443 0 17.314 6.287 17.314 12.521 0 6.234-5.636 12.172-17.314 12.172h-5.695v17.238-.006Zm3.369-19.563c3.545 0 5.053-4.487 5.053-9.203 0-5.242-1.92-10.833-5.053-10.833h-3.37v20.036h3.37ZM69.017 32.856c0 6.694-6.796 12.869-15.919 12.869-11.85 0-16.614-8.389-16.614-17.179S41.537 9.621 53.8 9.621c8.598 0 12.898 3.317 12.898 7.048 0 5.708-9.995 11.358-14.989 13.802 1.567 2.213 3.605 3.725 6.22 3.725 3.951 0 8.133-2.037 10.57-5.709.348 1.458.525 2.91.525 4.369h-.006Zm-13.77-15.083c0-3.028-1.92-5.301-4.475-5.301-1.973 0-2.733 1.399-2.733 5.065 0 3.258.754 7.515 2.438 10.891 1.92-2.444 4.765-6.93 4.765-10.655h.006ZM71.414 3.215h1.22c4.357 0 8.368-.407 12.143-1.163v8.153H88.9v2.444h-4.123V35.24c0 5.124 2.209 7.048 4.07 7.048v2.273c-1.744.349-2.792.585-4.883.585-8.421 0-12.55-5.939-12.55-11.063V12.654h-1.566V10.21h1.566V3.215Z"/><path fill="#3F593F" d="M121.385 32.856c0 6.694-6.796 12.869-15.919 12.869-11.849 0-16.613-8.389-16.613-17.179s5.053-18.925 17.314-18.925c8.599 0 12.898 3.258 12.898 6.753 0 2.91-3.021 6.116-9.123 7.279-.465-3.436-4.994-11.181-7.668-11.181-1.101 0-1.861 1.399-1.861 5.065 0 6.464 3.021 16.653 9.877 16.653 3.951 0 8.133-2.037 10.571-5.709.347 1.458.524 2.91.524 4.369v.006ZM125.13 1.468c4.358 0 8.369-.407 12.144-1.163v15.667c3.021-4.25 7.497-6.346 11.737-6.346 5.984 0 11.502 4.369 11.502 13.336v22.184h-13.48V24.998c0-6.582-2.327-10.017-4.706-10.017-2.497 0-5.053 3.725-5.053 11.357v18.808h-13.363V1.468h1.219ZM195.361 32.856c0 6.694-6.797 12.869-15.919 12.869-11.849 0-16.614-8.389-16.614-17.179s5.053-18.925 17.315-18.925c8.598 0 12.897 3.317 12.897 7.048 0 5.708-9.994 11.358-14.988 13.802 1.567 2.213 3.604 3.725 6.213 3.725 3.952 0 8.133-2.037 10.572-5.709.347 1.458.524 2.91.524 4.369Zm-13.77-15.083c0-3.028-1.919-5.301-4.475-5.301-1.973 0-2.733 1.399-2.733 5.065 0 3.258.754 7.515 2.438 10.891 1.914-2.444 4.765-6.93 4.765-10.655h.005ZM199.03 10.784c4.358 0 8.368-.408 12.143-1.163v6.346c3.022-4.25 7.498-6.346 11.738-6.346 5.983 0 11.502 4.368 11.502 13.335V45.14h-13.481V24.993c0-6.582-2.326-10.018-4.706-10.018-2.379 0-5.053 3.725-5.053 11.358V45.14h-13.362V10.783h1.219Z"/></svg>
